common/svg/apple-simulator-icon.svg

<svg fill="none" height="20" viewBox="0 0 20 20" width="20" xmlns="http://www.w3.org/2000/svg"><rect height="18.5" rx="2.25" stroke="#000" stroke-width="1.5" width="12.5" x="3.75" y=".75"/><g fill="#000"><path clip-rule="evenodd" d="m11.212 7.28065c.1771-.30589.0727-.69743-.2332-.87453s-.6975-.07269-.8746.23321l-2.99292 5.16967h1.47904zm-2.99923 5.18045c-.27239-.2338-.56687-.4526-.82118-.4627-.37107-.0148-.49477.1784-.58782.3518l-.00347-.0041-.21608.3732c-.1771.3059-.07269.6975.23321.8746.30589.1771.69744.0727.87453-.2332z" fill-rule="evenodd"/><path clip-rule="evenodd" d="m9.88713 10.5289c.27467.003.55767.0306.73337.2906.1929.2856.2074.653.1348.9894h-4.1153c-.35346 0-.64-.2865-.64-.64 0-.3534.28654-.64.64-.64zm1.58367 1.28h1.8892c.3535 0 .64-.2865.64-.64 0-.3534-.2865-.64-.64-.64h-2.6349z" fill-rule="evenodd"/><path clip-rule="evenodd" d="m8.81896 7.28065c-.1771-.30589-.07269-.69743.23321-.87453s.69744-.07269.87454.23321l.82129 1.41858-.76056 1.24103zm1.69944 2.93545 1.8206 3.1446c.1771.3059.5686.4103.8745.2332s.4103-.5687.2332-.8746l-2.4643-4.25657c-.1579.02103-.3002.11328-.4099.33251-.3137.62739-.1732 1.15943-.053 1.42106z" fill-rule="evenodd"/><path d="m7 1h6v1c0 .55228-.4477 1-1 1h-4c-.55228 0-1-.44772-1-1z"/></g></svg>

<svg width="20" height="20" viewBox="0 0 20 20" fill="none" xmlns="http://www.w3.org/2000/svg">
<rect x="3.75" y="0.75" width="12.5" height="18.5" rx="2.25" stroke="black" stroke-width="1.5"/>
<path fill-rule="evenodd" clip-rule="evenodd" d="M11.212 7.28065C11.3891 6.97476 11.2847 6.58322 10.9788 6.40612C10.6729 6.22902 10.2813 6.33343 10.1042 6.63933L7.11128 11.809H8.59032L11.212 7.28065ZM8.21277 12.4611C7.94038 12.2273 7.6459 12.0085 7.39159 11.9984C7.02052 11.9836 6.89682 12.1768 6.80377 12.3502L6.8003 12.3461L6.58422 12.7193C6.40712 13.0252 6.51153 13.4168 6.81743 13.5939C7.12332 13.771 7.51487 13.6666 7.69196 13.3607L8.21277 12.4611Z" fill="black"/>
<path fill-rule="evenodd" clip-rule="evenodd" d="M9.88713 10.5289C10.1618 10.5319 10.4448 10.5595 10.6205 10.8195C10.8134 11.1051 10.8279 11.4725 10.7553 11.8089H6.64C6.28654 11.8089 6 11.5224 6 11.1689C6 10.8155 6.28654 10.5289 6.64 10.5289H9.88713ZM11.4708 11.8089H13.36C13.7135 11.8089 14 11.5224 14 11.1689C14 10.8155 13.7135 10.5289 13.36 10.5289H10.7251L11.4708 11.8089Z" fill="black"/>
<path fill-rule="evenodd" clip-rule="evenodd" d="M8.81896 7.28065C8.64186 6.97476 8.74627 6.58322 9.05217 6.40612C9.35807 6.22902 9.74961 6.33343 9.92671 6.63933L10.748 8.05791L9.98744 9.29894L8.81896 7.28065ZM10.5184 10.2161L12.339 13.3607C12.5161 13.6666 12.9076 13.771 13.2135 13.5939C13.5194 13.4168 13.6238 13.0252 13.4467 12.7193L10.9824 8.46273C10.8245 8.48376 10.6822 8.57601 10.5725 8.79524C10.2588 9.42263 10.3993 9.95467 10.5195 10.2163L10.5184 10.2161Z" fill="black"/>
<path d="M7 1H13V2C13 2.55228 12.5523 3 12 3H8C7.44772 3 7 2.55228 7 2V1Z" fill="black"/>
</svg>
